static/fa/svgs/regular/face-rolling-eyes.svg

<svg xmlns="http://www.w3.org/2000/svg" viewBox="0 0 512 512"><!--! Font Awesome Free 6.1.1 by @fontawesome - https://fontawesome.com License - https://fontawesome.com/license/free (Icons: CC BY 4.0, Fonts: SIL OFL 1.1, Code: MIT License) Copyright 2022 Fonticons, Inc.--><path d="M168 376c0-13.3 10.7-24 24-24h128c13.3 0 24 10.7 24 24s-10.7 24-24 24H192c-13.3 0-24-10.7-24-24zM80 224c0-44.2 35.8-80 80-80s80 35.8 80 80-35.8 80-80 80-80-35.8-80-80zm80 48c26.5 0 48-21.5 48-48 0-14.3-6.3-27.2-16.2-36 .1 1.3.2 2.6.2 4 0 17.7-14.3 32-32 32s-32-14.3-32-32c0-1.4.1-2.7.2-4-9.9 8.8-16.2 21.7-16.2 36 0 26.5 21.5 48 48 48zm112-48c0-44.2 35.8-80 80-80s80 35.8 80 80-35.8 80-80 80-80-35.8-80-80zm80 48c26.5 0 48-21.5 48-48 0-14.3-6.3-27.2-16.2-36 .1 1.3.2 2.6.2 4 0 17.7-14.3 32-32 32s-32-14.3-32-32c0-1.4.1-2.7.2-4-9.9 8.8-16.2 21.7-16.2 36 0 26.5 21.5 48 48 48zM0 256C0 114.6 114.6 0 256 0s256 114.6 256 256-114.6 256-256 256S0 397.4 0 256zm256 208c114.9 0 208-93.1 208-208S370.9 48 256 48 48 141.1 48 256s93.1 208 208 208z"/></svg>

<svg xmlns="http://www.w3.org/2000/svg" viewBox="0 0 512 512"><!--! Font Awesome Free 6.1.1 by @fontawesome - https://fontawesome.com License - https://fontawesome.com/license/free (Icons: CC BY 4.0, Fonts: SIL OFL 1.1, Code: MIT License) Copyright 2022 Fonticons, Inc. --><path d="M168 376C168 362.7 178.7 352 192 352H320C333.3 352 344 362.7 344 376C344 389.3 333.3 400 320 400H192C178.7 400 168 389.3 168 376zM80 224C80 179.8 115.8 144 160 144C204.2 144 240 179.8 240 224C240 268.2 204.2 304 160 304C115.8 304 80 268.2 80 224zM160 272C186.5 272 208 250.5 208 224C208 209.7 201.7 196.8 191.8 188C191.9 189.3 192 190.6 192 192C192 209.7 177.7 224 160 224C142.3 224 128 209.7 128 192C128 190.6 128.1 189.3 128.2 188C118.3 196.8 112 209.7 112 224C112 250.5 133.5 272 160 272V272zM272 224C272 179.8 307.8 144 352 144C396.2 144 432 179.8 432 224C432 268.2 396.2 304 352 304C307.8 304 272 268.2 272 224zM352 272C378.5 272 400 250.5 400 224C400 209.7 393.7 196.8 383.8 188C383.9 189.3 384 190.6 384 192C384 209.7 369.7 224 352 224C334.3 224 320 209.7 320 192C320 190.6 320.1 189.3 320.2 188C310.3 196.8 304 209.7 304 224C304 250.5 325.5 272 352 272zM0 256C0 114.6 114.6 0 256 0C397.4 0 512 114.6 512 256C512 397.4 397.4 512 256 512C114.6 512 0 397.4 0 256zM256 464C370.9 464 464 370.9 464 256C464 141.1 370.9 48 256 48C141.1 48 48 141.1 48 256C48 370.9 141.1 464 256 464z"/></svg>
